!!!!SEGMENT: pl-kk--kk-i-397--002_kaspar--missa-gloria.krn
!!!cenid: 18xx:1447
!!!COM: Kaspar
!!!COM-rismid: pe30048142
!!!CDT:
!!!CNT:
!!!OPR: Missa
!!!OTL: Gloria
!!!OMV: 002
!!!PDT: 1856
!!!AGN: Sacred; Mass
!!!SMS-siglum: PL-Kk
!!!SMS-shelfmark: Kk.I.397
!!!SMS-shelfwork: 001-002 M
!!!SMS-variant: Sopran str.13, Alt str.18, Tenore str.23, Bas str.28
!!!SMS-altvar: Partytura str 3-5.
!!!NIFC-rismid: 1001139936
!!!URL-scan: http://repozytorium.nifc.pl/skany/pl-kk-nut--i-397
!!!ONB-nifc: UWAGA: na podstawie głosów. Proszę uzupełnić pola !!!SMS dot. partytury i głosów. Uwaga: części Mszy: 1. Kyrie, 2. Gloria, 3. Credo, 4. Sanctus, 5. Benedictus, 6. Agnus
!!!AIN: 1 alto 2 empty 1 tenor
!!!key:
**kern	**text	**dynam	**kern	**text	**dynam	**kern	**text	**dynam	**kern	**text	**dynam
*part4	*part4	*part4	*part3	*part3	*part3	*part2	*part2	*part2	*part1	*part1	*part1
*staff4	*staff4	*	*staff3	*staff3	*	*staff2	*staff2	*	*staff1	*staff1	*
*Iempty	*	*	*Itenor	*	*	*Ialto	*	*	*Iempty	*	*
*I"Bas.	*	*	*I"Tenor.	*	*	*I"alt.	*	*	*I"ſopran	*	*
*I'B	*	*	*I'T	*	*	*I'A	*	*	*I'S	*	*
*clefF4	*	*	*clefC4	*	*	*clefC3	*	*	*clefC1	*	*
*k[b-]	*	*	*k[b-]	*	*	*k[b-]	*	*	*k[b-]	*	*
*F:	*	*	*F:	*	*	*F:	*	*	*F:	*	*
*M4/4	*	*	*M4/4	*	*	*M4/4	*	*	*M4/4	*	*
*met(c)	*	*	*met(c)	*	*	*met(c)	*	*	*met(c)	*	*
=1	=1	=1	=1	=1	=1	=1	=1	=1	=1	=1	=1
*2\right	*	*	*2\right	*	*	*2\right	*	*	*2\right	*	*
!LO:TX:t=P:problem=all\right&colon; global	!	!	!LO:TX:t=P:problem=all\right&colon; global	!	!	!LO:TX:t=P:problem=all\right&colon; global	!	!	!LO:TX:t=P:problem=all\right&colon; global	!	!
!LO:TX:rj:a:B:t=allegro	!	!	!LO:TX:rj:a:B:t=allegro.	!	!	!LO:TX:rj:a:B:t=allegro	!	!	!LO:TX:a:B:t=Allegro	!	!
2.F\	Glo-	f	2.c\	Glo-	f	2.f\	Glo-	f	2.a\	Glo-	f
4F\	-ri-	.	4c\	-ri-	.	4f\	-ri-	.	4a\	-ri-	.
=2	=2	=2	=2	=2	=2	=2	=2	=2	=2	=2	=2
1F\	-a	.	1c\	-a	.	1f\	-a	.	1a\	-a	.
=3	=3	=3	=3	=3	=3	=3	=3	=3	=3	=3	=3
2.F\	glo-	.	2.A\	glo-	.	2.f\	glo-	.	2.cc\	glo-	.
4F\	-ri-	.	4A\	-ri-	.	4f\	-ri-	.	4cc\	-ri-	.
=4	=4	=4	=4	=4	=4	=4	=4	=4	=4	=4	=4
1F\	-a	.	1A\	-a	.	1f\	-a	.	1cc\	-a	.
=5	=5	=5	=5	=5	=5	=5	=5	=5	=5	=5	=5
2.F\	glo-	.	2.c\	glo-	.	2.a\	glo-	.	2.ff\	glo-	.
4F\	-ri-	.	4c\	-ri-	.	4a\	-ri-	.	4ff\	-ri-	.
=6	=6	=6	=6	=6	=6	=6	=6	=6	=6	=6	=6
1F\	-a	.	1c\	-a	.	1a\	-a	.	1ff\	-a	.
=7	=7	=7	=7	=7	=7	=7	=7	=7	=7	=7	=7
2BB-/	in	.	2d\	in	.	2b-\	in	.	2ff\	in	.
2F\	ex-	.	2c\	ex-	.	2a\	ex-	.	2ff\	ex-	.
=8	=8	=8	=8	=8	=8	=8	=8	=8	=8	=8	=8
2BB-/	-cel-	.	2d\	-cel-	.	2b-\	-cel-	.	2ff\	-cel-	.
2F\	-sis	.	2c\	-sis	.	2a\	-sis	.	2ff\	-sis	.
!	!	!	!	!	!	!	!	!	!LO:LB:g=original	!	!
=9	=9	=9	=9	=9	=9	=9	=9	=9	=9	=9	=9
2G\	in	.	2c\	in	.	2b-\	in	.	2ee\	in	.
2F\	ex-	.	2c\	ex-	.	2a\	ex-	.	2ff\	ex-	.
!LO:LB:g=original	!	!	!LO:LB:g=original	!	!	!LO:LB:g=original	!	!	!	!	!
=10	=10	=10	=10	=10	=10	=10	=10	=10	=10	=10	=10
2E\	-cel-	.	2c\	-cel-	.	2g\	-cel-	.	(4gg\	-cel-	.
.	.	.	.	.	.	.	.	.	4g\	.	.
2D\	-sis	.	2f\	-sis	.	2g\	-sis	.	4a\)	.	.
.	.	.	.	.	.	.	.	.	4bn\	-sis	.
=11	=11	=11	=11	=11	=11	=11	=11	=11	=11	=11	=11
2C/	in	.	2e\	in	.	2g\	in	.	2cc\	in	.
2C/	ex-	.	2f\	ex-	.	2a\	ex-	.	2cc\	ex-	.
=12	=12	=12	=12	=12	=12	=12	=12	=12	=12	=12	=12
2C/	-cel-	.	2e\	-cel-	.	2g\	-cel-	.	2cc\	-cel-	.
2C/	-sis	.	2f\	-sis	.	2a\	-sis	.	2cc\	-sis	.
=13	=13	=13	=13	=13	=13	=13	=13	=13	=13	=13	=13
[>1C/	De-	.	[1e\	De-	.	[1g\	De-	.	[1cc\	De-	.
=14	=14	=14	=14	=14	=14	=14	=14	=14	=14	=14	=14
1C/]	.	.	1e\]	.	.	1g\]	.	.	1cc\]	.	.
=15	=15	=15	=15	=15	=15	=15	=15	=15	=15	=15	=15
2C/	-o	.	2e\	-o	.	2g\	-o	.	2cc\	-o	.
2r	.	.	2r	.	.	2r	.	.	2r	.	.
=16	=16	=16	=16	=16	=16	=16	=16	=16	=16	=16	=16
!	!	!LO:DY:rj	!	!	!LO:DY:rj	!	!	!LO:DY:rj	!	!	!
1F\	et	p	1A\	et	p	1f\	et	p	1f/	et	p
=17	=17	=17	=17	=17	=17	=17	=17	=17	=17	=17	=17
1F\	in	.	1d\	in	.	1f\	in	.	1b-\	in	.
=18	=18	=18	=18	=18	=18	=18	=18	=18	=18	=18	=18
2F\	ter-	.	2c\	ter-	.	2f\	ter-	.	2a\	ter-	.
2F\	-ra	.	(4d\	-ra	.	2f\	-ra	.	(4b-\	-ra	.
.	.	.	4c\)	.	.	.	.	.	4a\)	.	.
!	!	!	!	!	!	!	!	!	!LO:LB:g=original	!	!
=19	=19	=19	=19	=19	=19	=19	=19	=19	=19	=19	=19
1F\	pax	.	1c\	pax	.	1f\	pax	.	1a\	pax	.
!	!	!	!LO:LB:g=original	!	!	!LO:LB:g=original	!	!	!	!	!
=20	=20	=20	=20	=20	=20	=20	=20	=20	=20	=20	=20
1F\	et	.	1c\	et	.	1f\	et	.	1a\	et	.
=21	=21	=21	=21	=21	=21	=21	=21	=21	=21	=21	=21
1F\	in	.	(4B-\	in	.	1b-\	in	.	1dd\	in	.
.	.	.	4c\	.	.	.	.	.	.	.	.
.	.	.	4d\	.	.	.	.	.	.	.	.
.	.	.	4e\)	.	.	.	.	.	.	.	.
!LO:LB:g=original	!	!	!	!	!	!	!	!	!	!	!
=22	=22	=22	=22	=22	=22	=22	=22	=22	=22	=22	=22
2F\	ter-	.	2f\	ter-	.	2a\	ter-	.	2cc\	ter-	.
2F\	-ra	.	(4B-\	-ra	.	(4b-\	-ra	.	(4dd\	-ra	.
.	.	.	4c\)	.	.	4a\)	.	.	4cc\)	.	.
=23	=23	=23	=23	=23	=23	=23	=23	=23	=23	=23	=23
1F\	pax	.	1c\	pax	.	1a\	pax	.	1cc\	pax	.
=24	=24	=24	=24	=24	=24	=24	=24	=24	=24	=24	=24
1D\	pax	.	1d\	pax	.	1a\	pax	.	1ff\	pax	.
=25	=25	=25	=25	=25	=25	=25	=25	=25	=25	=25	=25
1A\	ho-	.	1c\	ho-	.	1f\	ho-	.	1cc\	ho-	.
=26	=26	=26	=26	=26	=26	=26	=26	=26	=26	=26	=26
4.B-\	-mi-	.	4.B-\	-mi-	.	4.f\	-mi-	.	4.dd\	-mi-	.
8B-\	-ni-	.	8B-\	-ni-	.	8f\	-ni-	.	8dd\	-ni-	.
2G\	-bus	.	2d\	-bus	.	2g\	-bus	.	2b-\	-bus	.
=27	=27	=27	=27	=27	=27	=27	=27	=27	=27	=27	=27
2E\	bo-	.	2c\	bo-	.	2g\	bo-	.	2cc\	bo-	.
(4F\	-ne	.	(4A\	-ne	.	2f\	-ne	.	(4f/	-ne	.
4D\)	.	.	4Bn\)	.	.	.	.	.	4g/)	.	.
!	!	!	!	!	!	!	!	!	!LO:LB:g=original	!	!
=28	=28	=28	=28	=28	=28	=28	=28	=28	=28	=28	=28
2C/	vo-	.	2c\	vo-	.	2f\	vo-	.	2a\	vo-	.
2C/	-lun-	.	(4B-X\	-lun-	.	(4g\	-lun-	.	(4b-\	-lun-	.
.	.	.	4A\)	.	.	4a\)	.	.	4cc\)	.	.
!	!	!	!LO:LB:g=original	!	!	!LO:LB:g=original	!	!	!	!	!
=29	=29	=29	=29	=29	=29	=29	=29	=29	=29	=29	=29
2C/	-ta-	.	(2.c\	-ta-	.	(2f\	-ta-	.	(2a\	-ta-	.
2r	.	.	.	.	.	2e\)	.	.	2g\)	.	.
.	.	.	4B-\)	.	.	.	.	.	.	.	.
=30	=30	=30	=30	=30	=30	=30	=30	=30	=30	=30	=30
4F\	-tis	.	4A\	-tis	.	4f\	-tis	.	4f/	-tis	.
4r	.	f	4r	.	f	4r	.	f	4r	.	f
2F\	lau-	.	2f\	lau-	.	2a\	lau-	.	2cc\	lau-	.
=31	=31	=31	=31	=31	=31	=31	=31	=31	=31	=31	=31
2F\	-da-	.	2c\	-da-	.	2a\	-da-	.	2cc\	-da-	.
2F\	-mus	.	2A\	-mus	.	2a\	-mus	.	2cc\	-mus	.
=32	=32	=32	=32	=32	=32	=32	=32	=32	=32	=32	=32
1E\	te	.	1A\	te	.	1g\	te	.	1cc#X\	te	.
=33	=33	=33	=33	=33	=33	=33	=33	=33	=33	=33	=33
1E\	lau-	.	1A\	lau-	.	1g\	lau-	.	1cc#X\	lau-	.
=34	=34	=34	=34	=34	=34	=34	=34	=34	=34	=34	=34
1C#X/	-da-	.	1A\	-da-	.	1g\	-da-	.	1ee\	-da-	.
=35	=35	=35	=35	=35	=35	=35	=35	=35	=35	=35	=35
1C#X/	-mus	.	1A\	-mus	.	1g\	-mus	.	1ee\	-mus	.
=36	=36	=36	=36	=36	=36	=36	=36	=36	=36	=36	=36
2D\	te	.	2A\	te	.	2f\	te	.	2dd\	te	.
4D\	be-	.	4f\	be-	.	4a\	be-	.	4dd\	be-	.
4D\	-ne-	.	4f\	-ne-	.	4a\	-ne-	.	4dd\	-ne-	.
!	!	!	!	!	!	!	!	!	!LO:LB:g=original	!	!
=37	=37	=37	=37	=37	=37	=37	=37	=37	=37	=37	=37
2D\	-di-	.	2f\	-di-	.	2a\	-di-	.	2dd\	-di-	.
4D\	-ci-	.	4f\	-ci-	.	4a\	-ci-	.	4dd\	-ci-	.
4D\	-mus	.	4f\	-mus	.	4a\	-mus	.	4dd\	-mus	.
!	!	!	!LO:LB:g=original	!	!	!	!	!	!	!	!
=38	=38	=38	=38	=38	=38	=38	=38	=38	=38	=38	=38
(2G\	te	.	1d\	te	.	1g\	te	.	2bn\	te	.
2F\)	.	.	.	.	.	.	.	.	(2b\	a-	.
!	!	!	!	!	!	!LO:LB:g=original	!	!	!	!	!
=39	=39	=39	=39	=39	=39	=39	=39	=39	=39	=39	=39
2E\	a-	.	2c\	a-	.	2g\	a-	.	2cc\)	.	.
2C/	-do-	.	2c\	-do-	.	2g\	-do-	.	2ee\	-do-	.
=40	=40	=40	=40	=40	=40	=40	=40	=40	=40	=40	=40
2D\	-ra-	.	2c\	-ra-	.	2f\	-ra-	.	2ee\	-ra-	.
2GG/	-mus	.	2Bn\	-mus	.	2g\	-mus	.	2dd\	-mus	.
!LO:LB:g=original	!	!	!	!	!	!	!	!	!	!	!
=41	=41	=41	=41	=41	=41	=41	=41	=41	=41	=41	=41
1C/	te	.	1c\	te	.	1e\	te	.	1g\	te	.
=42	=42	=42	=42	=42	=42	=42	=42	=42	=42	=42	=42
!	!	!LO:DY:rj	!	!	!LO:DY:rj	!	!	!LO:DY:rj	!	!	!LO:DY:rj
(2G\	a-	p	(1Bn\	a-	p	[1g\	a-	p	1g\	a-	p
2F\	.	.	.	.	.	.	.	.	.	.	.
=43	=43	=43	=43	=43	=43	=43	=43	=43	=43	=43	=43
2E\)	.	.	2c\)	.	.	2g\]	.	.	1cc\	-do-	.
2C/	-do-	.	2e\	-do-	.	2e\	-do-	.	.	.	.
=44	=44	=44	=44	=44	=44	=44	=44	=44	=44	=44	=44
1D\	-ra-	.	1f\	-ra-	.	1a\	-ra-	.	1cc\	-ra-	.
=45	=45	=45	=45	=45	=45	=45	=45	=45	=45	=45	=45
1GG/	-mus	.	1d\	-mus	.	1g\	-mus	.	1bn\	-mus	.
=46	=46	=46	=46	=46	=46	=46	=46	=46	=46	=46	=46
4C/	te	.	4e\	te	.	4g\	te	.	4cc\	te	.
4r	.	.	4r	.	f	4r	.	f	4r	.	f
2c\	glo-	.	2e\	glo-	.	2g\	glo-	.	2ee\	glo-	.
!	!	!	!LO:LB:g=original	!	!	!	!	!	!LO:LB:g=original	!	!
=47	=47	=47	=47	=47	=47	=47	=47	=47	=47	=47	=47
2c\	-ri-	.	2e\	-ri-	.	2g\	-ri-	.	2ee\	-ri-	.
2c\	-fi-	.	2e\	-fi-	.	2g\	-fi-	.	2ee\	-fi-	.
=48	=48	=48	=48	=48	=48	=48	=48	=48	=48	=48	=48
[1c\	-ca-	.	[1e\	-ca-	.	[1g\	-ca-	.	[1ee\	-ca-	.
!	!	!	!	!	!	!LO:LB:g=original	!	!	!	!	!
=49	=49	=49	=49	=49	=49	=49	=49	=49	=49	=49	=49
2c\]	.	.	2e\]	.	.	2g\]	.	.	2ee\]	.	.
2c\	-mus	.	2e\	-mus	.	2g\	-mus	.	2ee\	-mus	.
=50	=50	=50	=50	=50	=50	=50	=50	=50	=50	=50	=50
2c\	te	.	2e\	te	.	2g\	te	.	2ee\	te	.
2B-X\	glo-	.	2c\	glo-	.	2g\	glo-	.	2ee\	glo-	.
!LO:LB:g=original	!	!	!	!	!	!	!	!	!	!	!
=51	=51	=51	=51	=51	=51	=51	=51	=51	=51	=51	=51
2A\	-ri-	.	2c\	-ri-	.	2g\	-ri-	.	2ff\	-ri-	.
2F\	-fi-	.	2c\	-fi-	.	2a\	-fi-	.	2ff\	-fi-	.
=52	=52	=52	=52	=52	=52	=52	=52	=52	=52	=52	=52
[1G\	-ca-	.	1c\	-ca-	.	[1g\	-ca-	.	1ee\	-ca-	.
=53	=53	=53	=53	=53	=53	=53	=53	=53	=53	=53	=53
(1G\]	.	.	(1e\	.	.	1g\_	.	.	[1cc\	.	.
=54	=54	=54	=54	=54	=54	=54	=54	=54	=54	=54	=54
1GG/)	.	.	[1d\	.	.	1g\]	.	.	1cc\]	.	.
=55	=55	=55	=55	=55	=55	=55	=55	=55	=55	=55	=55
1GG/	-mus	.	4d\])	.	.	1g\	-mus	.	1bn\	-mus	.
.	.	.	4e\	.	.	.	.	.	.	.	.
.	.	.	2f\	-mus	.	.	.	.	.	.	.
=56	=56	=56	=56	=56	=56	=56	=56	=56	=56	=56	=56
2C/	te	.	2e\	te	.	2g\	te	.	2cc\	te	.
2r	.	.	2r	.	.	2r	.	.	2r	.	.
!	!	!	!LO:LB:g=original	!	!	!	!	!	!LO:LB:g=original	!	!
=57	=57	=57	=57	=57	=57	=57	=57	=57	=57	=57	=57
!	!	!LO:DY:rj	!	!	!	!	!	!LO:DY:rj	!	!	!LO:DY:rj
1C/	gra-	p	1c\	gra-	.	1g\	gra-	p	1ee\	gra-	p
=58	=58	=58	=58	=58	=58	=58	=58	=58	=58	=58	=58
2F\	-ti-	.	2Bn\	-ti-	.	2g\	-ti-	.	2dd\	-ti-	.
2F\	-as	.	2d\	-as	.	2g\	-as	.	2bn\	-as	.
!	!	!	!	!	!	!LO:LB:g=original	!	!	!	!	!
=59	=59	=59	=59	=59	=59	=59	=59	=59	=59	=59	=59
2E\	a-	.	2c\	a-	.	2g\	a-	.	2cc\	a-	.
4F\	-gi-	.	4c\	-gi-	.	4a\	-gi-	.	4dd\	-gi-	.
4E\	-mus	.	4G/	-mus	.	4g\	-mus	.	4ee\	-mus	.
=60	=60	=60	=60	=60	=60	=60	=60	=60	=60	=60	=60
(2D\	ti-	.	(2A\	ti-	.	(2e\	ti-	.	(2g/	ti-	.
2GG/)	.	.	4Bn\	.	.	2d\)	.	.	2f/)	.	.
.	.	.	4A\)	.	.	.	.	.	.	.	.
!LO:LB:g=original	!	!	!	!	!	!	!	!	!	!	!
=61	=61	=61	=61	=61	=61	=61	=61	=61	=61	=61	=61
4C/	-bi	.	4G/	-bi	.	4c\	-bi	.	4e/	-bi	.
4r	.	.	4r	.	.	4r	.	.	4r	.	.
4E\	prop-	.	4Bn\	prop-	.	4g\	prop-	.	4cc\	prop-	.
4E\	-ter	.	4A\	-ter	.	4g\	-ter	.	4cc\	-ter	.
=62	=62	=62	=62	=62	=62	=62	=62	=62	=62	=62	=62
2F\	mag-	.	2c\	mag-	.	2a\	mag-	.	2a\	mag-	.
2E\	-nam	.	2G/	-nam	.	2g\	-nam	.	2cc\	-nam	.
=63	=63	=63	=63	=63	=63	=63	=63	=63	=63	=63	=63
2D\	glo-	.	(4A\	glo-	.	2f\	glo-	.	2ff\	glo-	.
.	.	.	4Bn\)	.	.	.	.	.	.	.	.
4C/	-ri-	.	4c\	-ri-	.	4g\	-ri-	.	4ee\	-ri-	.
4A\	-am	.	4d\	-am	.	4f#X\	-am	.	4dd\	-am	.
!	!	!	!LO:LB:g=original	!	!	!	!	!	!	!	!
=64	=64	=64	=64	=64	=64	=64	=64	=64	=64	=64	=64
1G\	tu-	.	1e\	tu-	.	1g\	tu-	.	1cc\	tu-	.
=65	=65	=65	=65	=65	=65	=65	=65	=65	=65	=65	=65
2GG/	-am	.	2d\	-am	.	2g\	-am	.	2bn\	-am	.
2r	.	.	2r	.	.	2r	.	.	2r	.	.
.	.	f	.	.	.	.	.	.	.	.	.
!	!	!	!	!	!	!	!	!	!LO:LB:g=original	!	!
=66	=66	=66	=66	=66	=66	=66	=66	=66	=66	=66	=66
!	!	!	!LO:TX:a:t=8.	!	!	!LO:TX:a:t=2	!	!	!LO:TX:a:t=6.	!	!
1C/	Do-	.	00r	.	.	0r	.	.	00r	.	.
=67	=67	=67	=67	=67	=67	=67	=67	=67	=67	=67	=67
2F\	-mi-	.	.	.	.	.	.	.	.	.	.
2F\	-ne	.	.	.	.	.	.	.	.	.	.
=68	=68	=68	=68	=68	=68	=68	=68	=68	=68	=68	=68
!	!	!	!	!	!	!	!	!LO:DY:rj	!	!	!
2E\	De-	.	.	.	.	1c\	Do-	f	.	.	.
(4F\	-us	.	.	.	.	.	.	.	.	.	.
4E\)	.	.	.	.	.	.	.	.	.	.	.
!LO:LB:g=original	!	!	!	!	!	!	!	!	!	!	!
=69	=69	=69	=69	=69	=69	=69	=69	=69	=69	=69	=69
(4D\	rex	.	.	.	.	2f\	-mi-	.	.	.	.
4E\)	.	.	.	.	.	.	.	.	.	.	.
(4F\	ce-	.	.	.	.	2f\	-ne	.	.	.	.
4G\)	.	.	.	.	.	.	.	.	.	.	.
=70	=70	=70	=70	=70	=70	=70	=70	=70	=70	=70	=70
2A\	-le-	.	00r	.	.	2e\	fi-	.	0r	.	.
2A\	-stis	.	.	.	.	(4f\	-li	.	.	.	.
.	.	.	.	.	.	4e\)	.	.	.	.	.
=71	=71	=71	=71	=71	=71	=71	=71	=71	=71	=71	=71
(4Bn\	De-	.	.	.	.	(4d\	u-	.	.	.	.
4A\	.	.	.	.	.	4f\)	.	.	.	.	.
4G#X\	.	.	.	.	.	(4e\	-ni-	.	.	.	.
4B\	.	.	.	.	.	4d\)	.	.	.	.	.
=72	=72	=72	=72	=72	=72	=72	=72	=72	=72	=72	=72
4A\	.	.	.	.	.	(2c\	-ge-	.	1a\	Do-	.
4Gn\	.	.	.	.	.	.	.	.	.	.	.
4F\	.	.	.	.	.	4d\	.	.	.	.	.
4E\)	.	.	.	.	.	4e\)	.	.	.	.	.
=73	=73	=73	=73	=73	=73	=73	=73	=73	=73	=73	=73
1D\	-us	.	.	.	.	1f\	-ni-	.	2dd\	-mi-	.
.	.	.	.	.	.	.	.	.	2dd\	-ne	.
=74	=74	=74	=74	=74	=74	=74	=74	=74	=74	=74	=74
!	!	!	!	!	!LO:DY:rj	!	!	!	!	!	!
1E\	pa-	.	1A\	Do	f	1e\	-te	.	2cc\	De-	.
.	.	.	.	.	.	.	.	.	(4dd\	-us	.
.	.	.	.	.	.	.	.	.	4cc\)	.	.
=75	=75	=75	=75	=75	=75	=75	=75	=75	=75	=75	=75
!	!	!	!	!	!	!LO:TX:a:t=3.	!	!	!	!	!
2E\	-ter	.	2d\	-mi-	.	0r	.	.	(4bn\	a-	.
.	.	.	.	.	.	.	.	.	4a\)	.	.
2E\	o-	.	2d\	-ne	.	.	.	.	4g#X\	-gnus	.
.	.	.	.	.	.	.	.	.	4b\	.	.
=76	=76	=76	=76	=76	=76	=76	=76	=76	=76	=76	=76
4.F\	-mni-	.	2c\	De-	.	.	.	.	[1a\	De-	.
8F\	-po-	.	.	.	.	.	.	.	.	.	.
2D\	-tens	.	(4d\	.	.	.	.	.	.	.	.
.	.	.	4c\	.	.	.	.	.	.	.	.
!LO:LB:g=original	!	!	!	!	!	!	!	!	!	!	!
=77	=77	=77	=77	=77	=77	=77	=77	=77	=77	=77	=77
[1E\	mi-	.	4Bn\)	.	.	1r	.	.	2a\]	.	.
.	.	.	(4f\	.	.	.	.	.	.	.	.
.	.	.	4e\	.	.	.	.	.	2g#X\	.	.
.	.	.	4d\)	.	.	.	.	.	.	.	.
=78	=78	=78	=78	=78	=78	=78	=78	=78	=78	=78	=78
2E\]	.	.	4c#X\	us	.	[1a\	mi-	.	4a\	-i	.
.	.	.	(4A\	mi-	.	.	.	.	(4cc#X\	mi-	.
2AA/	-se-	.	4Bn\)	.	.	.	.	.	4dd\)	.	.
.	.	.	4c#\	-se-	.	.	.	.	4ee\	-se-	.
!	!	!	!LO:LB:g=original	!	!	!LO:LB:g=original	!	!	!LO:LB:g=original	!	!
=79	=79	=79	=79	=79	=79	=79	=79	=79	=79	=79	=79
[1D\	-re-	.	(4d\	-re-	.	4a\]	.	.	(4ff\	-re-	.
.	.	.	4e\	.	.	4g\	.	.	4ee\	.	.
.	.	.	4f\	.	.	(4f\	-se-	.	4dd\	.	.
.	.	.	4e\)	.	.	4a\)	.	.	4ccn\)	.	.
=80	=80	=80	=80	=80	=80	=80	=80	=80	=80	=80	=80
2D\]	.	.	4d\	-re	.	[1g\	-re-	.	4bn\	-re	.
.	.	.	(4G\	mi-	.	.	.	.	(4b\	mi-	.
2GG/	-re	.	4A\)	.	.	.	.	.	4cc\)	.	.
.	.	.	4Bn\	-se-	.	.	.	.	4dd\	-se-	.
=81	=81	=81	=81	=81	=81	=81	=81	=81	=81	=81	=81
1C/	no-	.	4c\	-re-	.	4g\]	.	.	4ee\	-re-	.
.	.	.	4d\	-re	.	4Bn/	-re	.	4dd\	-re	.
.	.	.	(4e\	no-	.	(4c\	no-	.	(4cc\	no-	.
.	.	.	4d\)	.	.	4d\)	.	.	4bn\)	.	.
=82	=82	=82	=82	=82	=82	=82	=82	=82	=82	=82	=82
4F\	-bis	.	4c\	-bis	.	4d#X\	-bis	.	4a\	-bis	.
4r	.	f	4r	.	f	4r	.	f	4r	.	f
2F\	qui	.	2c\	qui	.	2d#\	qui	.	2a\	qui	.
=83	=83	=83	=83	=83	=83	=83	=83	=83	=83	=83	=83
1F\	se-	.	1c\	se-	.	1d#X\	se-	.	1a\	se-	.
=84	=84	=84	=84	=84	=84	=84	=84	=84	=84	=84	=84
1E\	-des	.	1c#X\	-des	.	1e\	-des	.	1a\	-des	.
=85	=85	=85	=85	=85	=85	=85	=85	=85	=85	=85	=85
1E\	ad	.	1c#X\	ad	.	1e\	ad	.	1a\	ad	.
=86	=86	=86	=86	=86	=86	=86	=86	=86	=86	=86	=86
1C#X/	de-	.	1e\	de-	.	1gn\	de-	.	1a\	de-	.
!LO:LB:g=original	!	!	!LO:LB:g=original	!	!	!LO:LB:g=original	!	!	!LO:LB:g=original	!	!
=87	=87	=87	=87	=87	=87	=87	=87	=87	=87	=87	=87
2C#X/	-xte-	.	2e\	-xte-	.	2g\	-xte-	.	2a\	-xte-	.
2C#/	-ram	.	2e\	-ram	.	2g\	-ram	.	2a\	-ram	.
=88	=88	=88	=88	=88	=88	=88	=88	=88	=88	=88	=88
1D\	pa-	.	1d\	pa-	.	1f\	pa-	.	1a\	pa-	.
=89	=89	=89	=89	=89	=89	=89	=89	=89	=89	=89	=89
1D\	-tris	.	1d\	-tris	.	1f\	-tris	.	1a\	-tris	.
=90	=90	=90	=90	=90	=90	=90	=90	=90	=90	=90	=90
!	!	!LO:DY:rj	!	!	!LO:DY:rj	!	!	!LO:DY:rj:t=p	!	!	!LO:DY:rj
1GG/	mi-	p	1cn\	mi-	p	1f\	mi-	p	1b-X\	mi-	p
=91	=91	=91	=91	=91	=91	=91	=91	=91	=91	=91	=91
1C/	-se-	.	1d\	-se-	.	1e\	-se-	.	1g\	-se-	.
=92	=92	=92	=92	=92	=92	=92	=92	=92	=92	=92	=92
1GG/	-re-	.	1d\	-re-	.	1f\	-re-	.	1b-\	-re-	.
=93	=93	=93	=93	=93	=93	=93	=93	=93	=93	=93	=93
1C/	-re	.	1c\	-re	.	1e\	-re	.	1g\	-re	.
=94	=94	=94	=94	=94	=94	=94	=94	=94	=94	=94	=94
!	!	!LO:DY:rj	!	!	!	!	!	!LO:DY:rj:t=p	!	!	!
(2F\	mi-	p	(1c\	mi-	p	[1f\	mi-	p	1a-X\	mi-	p
2E-X\	.	.	.	.	.	.	.	.	.	.	.
=95	=95	=95	=95	=95	=95	=95	=95	=95	=95	=95	=95
2D-X\)	.	.	2Bn\)	.	.	1f\]	-se-	.	1a-X\	-se-	.
2C\	-se-	.	2c\	-se-	.	.	.	.	.	.	.
=96	=96	=96	=96	=96	=96	=96	=96	=96	=96	=96	=96
2BB-X/	-re-	.	2d-X\	-re-	.	2f\	-re-	.	2g\	-re-	.
2BB-/	-re	.	2d-\	-re	.	2f\	-re	.	2g\	-re	.
!LO:LB:g=original	!	!	!LO:LB:g=original	!	!	!	!	!	!	!	!
=97	=97	=97	=97	=97	=97	=97	=97	=97	=97	=97	=97
1BBn/	no-	.	1dn\	no-	.	1f\	no-	.	1g\	no-	.
!	!	!	!	!	!	!LO:LB:g=original	!	!	!	!	!
=98	=98	=98	=98	=98	=98	=98	=98	=98	=98	=98	=98
4C/	-bis	.	4c\	-bis	.	4e\	-bis	.	4g\	-bis	.
4r	.	.	4r	.	.	4r	.	.	4r	.	.
2r	.	.	2r	.	.	2r	.	.	2r	.	.
!	!	!	!	!	!	!	!	!	!LO:LB:g=original	!	!
=99	=99	=99	=99	=99	=99	=99	=99	=99	=99	=99	=99
2.F\	Quo-	.	2.c\	Quo-	.	2.f\	Quo-	.	2.a\	Quo-	.
4F\	-ni-	.	4c\	-ni-	.	4f\	-ni-	.	4a\	-ni-	.
=100	=100	=100	=100	=100	=100	=100	=100	=100	=100	=100	=100
2F\	-am	.	2c\	-am	.	2f\	-am	.	2a\	-am	.
2F\	tu	.	2c\	tu	.	2f\	tu	.	2a\	tu	.
=101	=101	=101	=101	=101	=101	=101	=101	=101	=101	=101	=101
1F\	so-	.	1A\	so-	.	1f\	so-	.	1cc\	so-	.
=102	=102	=102	=102	=102	=102	=102	=102	=102	=102	=102	=102
1F\	-lus	.	1A\	-lus	.	1f\	-lus	.	1cc\	-lus	.
=103	=103	=103	=103	=103	=103	=103	=103	=103	=103	=103	=103
1F\	san-	.	1c\	San-	.	1a\	san-	.	1ff\	San-	.
=104	=104	=104	=104	=104	=104	=104	=104	=104	=104	=104	=104
2F\	-ctus	.	2c\	-ctus	.	2a\	-ctus	.	2ff\	-ctus	.
2F\	tu	.	2c\	tu	.	2a\	tu	.	2ff\	tu	.
=105	=105	=105	=105	=105	=105	=105	=105	=105	=105	=105	=105
2G\ 2BB-\	so-	.	2d\	so-	.	2b-\	so-	.	2ff\	so-	.
2F\	-lus	.	2c\	-lus	.	2a\	-lus	.	2ff\	-lus	.
!LO:LB:g=original	!	!	!LO:LB:g=original	!	!	!LO:LB:g=original	!	!	!	!	!
=106	=106	=106	=106	=106	=106	=106	=106	=106	=106	=106	=106
4.BB-/	Do-	.	4.d\	do-	.	4.b-\	Do-	.	4.ff\	Do-	.
8BB-/	-mi-	.	8d\	-mi-	.	8b-\	-mi-	.	8ff\	-mi-	.
4F\	-nus	.	4c\	-nus	.	4a\	-nus	.	4ff\	-nus	.
4F\	tu	.	4c\	tu	.	4a\	tu	.	4ff\	tu	.
!	!	!	!	!	!	!	!	!	!LO:LB:g=original	!	!
=107	=107	=107	=107	=107	=107	=107	=107	=107	=107	=107	=107
2G\	so-	.	2c\	so-	.	2b-\	so-	.	2ee\	so-	.
4F\	-lus	.	4c\	-lus	.	4a\	-lus	.	4ff\	-lus	.
4F\	al-	.	4c\	al-	.	4a\	al-	.	4ff\	al-	.
=108	=108	=108	=108	=108	=108	=108	=108	=108	=108	=108	=108
2E\	-tis-	.	2c\	-tis-	.	2g\	-tis-	.	(4gg\	-tis-	.
.	.	.	.	.	.	.	.	.	4g\)	.	.
2D\	-si-	.	2f\	-si-	.	2g\	-si-	.	(4a\	-si-	.
.	.	.	.	.	.	.	.	.	4bn\)	.	.
=109	=109	=109	=109	=109	=109	=109	=109	=109	=109	=109	=109
2C/	-mus	.	2e\	-mus	.	2g\	-mus	.	2cc\	-mus	.
[>2C/	Je-	.	2f\	Je-	.	(2a\	J-	.	[2cc\	Je-	.
=110	=110	=110	=110	=110	=110	=110	=110	=110	=110	=110	=110
2C/]	.	.	2e\	.	.	2g\)	.	.	2cc\]	.	.
2C/	-su	.	2f\	-su	.	2a\	-su	.	2cc\	-su	.
=111	=111	=111	=111	=111	=111	=111	=111	=111	=111	=111	=111
[>1C/	Chri-	.	[1e\	Chri-	.	[1g\	Chri-	.	[1cc\	Chri-	.
=112	=112	=112	=112	=112	=112	=112	=112	=112	=112	=112	=112
1C/]	.	.	1e\]	.	.	1g\]	.	.	1cc\]	.	.
=113	=113	=113	=113	=113	=113	=113	=113	=113	=113	=113	=113
2C/	-ste	.	2e\	-ste	.	2g\	-ste	.	2cc\	-ste	.
2r	.	.	2r	.	.	2r	.	.	2r	.	.
!LO:PB:g=original	!	!	!LO:PB:g=original	!	!	!LO:PB:g=original	!	!	!	!	!
=114	=114	=114	=114	=114	=114	=114	=114	=114	=114	=114	=114
!LO:TX:a:t=8.	!	!	!	!	!	!LO:TX:a:t=2	!	!	!LO:TX:a:t=6	!	!
00r	.	.	1F/	Cum	f	0r	.	.	00r	.	.
=115	=115	=115	=115	=115	=115	=115	=115	=115	=115	=115	=115
.	.	.	2B-\	san-	.	.	.	.	.	.	.
.	.	.	2B-\	-cto	.	.	.	.	.	.	.
=116	=116	=116	=116	=116	=116	=116	=116	=116	=116	=116	=116
.	.	.	2A\	spi-	.	1f\	cum	.	.	.	.
.	.	.	(4B-\	-ri-	.	.	.	.	.	.	.
.	.	.	4A\)	.	.	.	.	.	.	.	.
=117	=117	=117	=117	=117	=117	=117	=117	=117	=117	=117	=117
.	.	.	2G/	-tu	.	2b-\	san-	.	.	.	.
.	.	.	2c\	in	.	2b-\	-cto	.	.	.	.
=118	=118	=118	=118	=118	=118	=118	=118	=118	=118	=118	=118
00r	.	.	(2F/	glo-	.	2a\	spi-	.	0r	.	.
.	.	.	4G/	.	.	(4b-\	-ri-	.	.	.	.
.	.	.	4A/	.	.	4a\)	.	.	.	.	.
=119	=119	=119	=119	=119	=119	=119	=119	=119	=119	=119	=119
.	.	.	4B-\	.	.	2g\	-tu	.	.	.	.
.	.	.	4c\	.	.	.	.	.	.	.	.
.	.	.	4d\	.	.	2cc\	in	.	.	.	.
.	.	.	4e\	.	.	.	.	.	.	.	.
!	!	!	!	!	!	!	!	!	!LO:PB:g=original	!	!
=120	=120	=120	=120	=120	=120	=120	=120	=120	=120	=120	=120
.	.	.	2f\	.	.	(2a\	glo-	.	1cc\	cum	.
.	.	.	4e\	.	.	4g\	.	.	.	.	.
.	.	.	4f\	.	.	4a\)	.	.	.	.	.
=121	=121	=121	=121	=121	=121	=121	=121	=121	=121	=121	=121
.	.	.	[1d\)	.	.	(4f\	-ri-	.	2ff\	san-	.
.	.	.	.	.	.	4g\)	.	.	.	.	.
.	.	.	.	.	.	(4a\	-a	.	2ff\	-cto	.
.	.	.	.	.	.	8g\L	.	.	.	.	.
.	.	.	.	.	.	8f\J)	.	.	.	.	.
!	!	!	!LO:LB:g=original	!	!	!	!	!	!	!	!
=122	=122	=122	=122	=122	=122	=122	=122	=122	=122	=122	=122
!	!	!LO:DY:rj	!	!	!	!	!	!	!	!	!
1C/	cum	f	2d\]	-o-	.	1g\	in	.	2ee\	spi-	.
.	.	.	[2c\	-ri-	.	.	.	.	(4ff\	-ri-	.
.	.	.	.	.	.	.	.	.	4ee\)	.	.
!	!	!	!	!	!	!LO:LB:g=original	!	!	!	!	!
=123	=123	=123	=123	=123	=123	=123	=123	=123	=123	=123	=123
2F\	san-	.	2c\]	.	.	(2a\	glo-	.	[1dd\	-tu	.
2F\	-cto	.	[2Bn\	-a	.	[2g\	.	.	.	.	.
=124	=124	=124	=124	=124	=124	=124	=124	=124	=124	=124	=124
2E\	spi-	.	4B\]	.	.	2g\])	.	.	2dd\]	.	.
.	.	.	4G\	in	.	.	.	.	.	.	.
(4F\	-ri-	.	[2c\	glo-	.	4a\	-ri-	.	2cc\	in	.
4E\)	.	.	.	.	.	4g\	-a	.	.	.	.
=125	=125	=125	=125	=125	=125	=125	=125	=125	=125	=125	=125
1D\	-tu	.	(4c\]	.	.	2g\	in	.	2a\	glo-	.
.	.	.	4A\	.	.	.	.	.	.	.	.
.	.	.	4d\	.	.	[2f#X\	glo-	.	[2dd\	.	.
.	.	.	4c\)	.	.	.	.	.	.	.	.
=126	=126	=126	=126	=126	=126	=126	=126	=126	=126	=126	=126
1G\	in	.	2c\	-ri-	.	2f#X\]	.	.	2dd\]	.	.
.	.	.	2Bn\	-a	.	4g\	-ri-	.	[2g\	.	.
.	.	.	.	.	.	4fn\	-a	.	.	.	.
=127	=127	=127	=127	=127	=127	=127	=127	=127	=127	=127	=127
1C/	glo-	.	(4B-X\	in	.	2f\	in	.	2g\]	.	.
.	.	.	4G\)	.	.	.	.	.	.	.	.
.	.	.	(4c\	glo-	.	[2e\	glo-	.	[2cc\	.	.
.	.	.	4B-\)	.	.	.	.	.	.	.	.
=128	=128	=128	=128	=128	=128	=128	=128	=128	=128	=128	=128
2F\	-ri-	.	2B-\	-ri-	.	2e\]	.	.	2cc\]	.	.
2F\	-a	.	2A\	-a	.	4f\	-ri-	.	4f/	ri-	.
.	.	.	.	.	.	4e-X\	-a	.	4f/	-a	.
!	!	!	!LO:LB:g=original	!	!	!	!	!	!LO:LB:g=original	!	!
=129	=129	=129	=129	=129	=129	=129	=129	=129	=129	=129	=129
!	!	!	!	!	!LO:DY:rj	!	!	!LO:DY:rj:t=f	!	!	!
1G\	De-	.	1B-\	De-	f	1d\	De-	f	1b-\	De-	.
=130	=130	=130	=130	=130	=130	=130	=130	=130	=130	=130	=130
1F\	-i	.	1Bn\	-i	.	1a-X\	-i	.	1dd\	-i	.
!LO:LB:g=original	!	!	!	!	!	!	!	!	!	!	!
=131	=131	=131	=131	=131	=131	=131	=131	=131	=131	=131	=131
1E\	pa-	.	1c\	pa-	.	1g\	pa-	.	1cc\	pa-	.
!	!	!	!	!	!	!LO:LB:g=original	!	!	!	!	!
=132	=132	=132	=132	=132	=132	=132	=132	=132	=132	=132	=132
2C/	-tris	.	2g\	-tris	.	2b-\	-tris	.	2ee\	-tris	.
2C/	in	.	2g\	in	.	2b-\	in	.	2ee\	in	.
=133	=133	=133	=133	=133	=133	=133	=133	=133	=133	=133	=133
!	!	!LO:DY:rj	!	!	!LO:DY:rj	!	!	!LO:DY:rj	!	!	!
1D-X\	glo-	f	[1f\ 1d-X\	glo-	f	1a-X\	glo-	f	1ff\	glo-	.
=134	=134	=134	=134	=134	=134	=134	=134	=134	=134	=134	=134
*	*	*	*^	*	*	*	*	*	*	*	*
2D-X\	-ri-	.	2f/]	2d-X\	-ri-	.	2a-X\	-ri-	.	2ff\	-ri-	.
2D-\	-a	.	2f/	2d-\	-a	.	2a-\	-a	.	2ff\	-a	.
*	*	*	*v	*v	*	*	*	*	*	*	*	*
=135	=135	=135	=135	=135	=135	=135	=135	=135	=135	=135	=135
1BB-/	De-	.	1dn\	De-	.	1a-X\	De-	.	1ff\	De-	.
=136	=136	=136	=136	=136	=136	=136	=136	=136	=136	=136	=136
1BB-/	-i	.	1d\	-i	.	1a\	-i	.	1ff\	-i	.
=137	=137	=137	=137	=137	=137	=137	=137	=137	=137	=137	=137
(>1BBn/	pa-	.	(1d\	pa-	.	[1a-X\	pa-	.	[1ff\	pa-	.
=138	=138	=138	=138	=138	=138	=138	=138	=138	=138	=138	=138
2C/)	.	.	2c\)	.	.	2a-\]	.	.	2ff\]	.	.
2Dn\	-tris	.	2Bn\	-tris	.	2a-X\	-tris	.	2ff\	-tris	.
!	!	!	!LO:LB:g=original	!	!	!	!	!	!	!	!
=139	=139	=139	=139	=139	=139	=139	=139	=139	=139	=139	=139
(4C\	a-	.	[1c\	a-	.	[1an\	a-	.	[1ff\	a-	.
8D\L	.	.	.	.	.	.	.	.	.	.	.
8En\J	.	.	.	.	.	.	.	.	.	.	.
8F\L	.	.	.	.	.	.	.	.	.	.	.
8G\	.	.	.	.	.	.	.	.	.	.	.
8An\	.	.	.	.	.	.	.	.	.	.	.
8B-\J)	.	.	.	.	.	.	.	.	.	.	.
!LO:LB:g=original	!	!	!	!	!	!	!	!	!LO:LB:g=original	!	!
=140	=140	=140	=140	=140	=140	=140	=140	=140	=140	=140	=140
(2c\	a-	.	2c\]	.	.	2a\]	.	.	2ff\]	.	.
4A\)	.	.	2c\	-men	.	2a\	-men	.	2ff\	-men	.
4F\	-men	.	.	.	.	.	.	.	.	.	.
!	!	!	!	!	!	!LO:LB:g=original	!	!	!	!	!
=141	=141	=141	=141	=141	=141	=141	=141	=141	=141	=141	=141
[>1C/	a-	.	[1c\	a-	.	[1g\	a-	.	(1ff\	a-	.
=142	=142	=142	=142	=142	=142	=142	=142	=142	=142	=142	=142
1C/]	.	.	1c\]	.	.	1g\]	.	.	1ee\)	.	.
=143	=143	=143	=143	=143	=143	=143	=143	=143	=143	=143	=143
2F\	-men	.	4c\	-men	.	4a\	-men	.	(4ff\	-men	.
.	.	.	(4A\	a-	.	2f\	a-	.	4f\	a-	.
(2E-X\	a-	.	4B-\	.	.	.	.	.	4g\	.	.
.	.	.	4c\)	.	.	4f\	-men	.	4a\	.	.
=144	=144	=144	=144	=144	=144	=144	=144	=144	=144	=144	=144
2D\)	.	.	4F/	-men	.	2f\	a-	.	4b-\	.	.
.	.	.	4F/	a-	.	.	.	.	4a\	.	.
2C/	-men	.	4G/	.	.	2f\	-men	.	4b-\	.	.
.	.	.	4A\	-men	.	.	.	.	4cc\)	-men	.
=145	=145	=145	=145	=145	=145	=145	=145	=145	=145	=145	=145
[>1BB-/	a-	.	1B-\	a-	.	[1f\	a-	.	[1dd\	a-	.
=146	=146	=146	=146	=146	=146	=146	=146	=146	=146	=146	=146
1BB-/]	.	.	1B-\	.	.	1f\]	.	.	1dd\]	.	.
=147	=147	=147	=147	=147	=147	=147	=147	=147	=147	=147	=147
2F\	-men	.	2A\	-men	.	2f\	-men	.	2cc\	-men	.
4F\	a-	.	4c\	a-	.	4a\	a-	.	4ff\	a-	.
4F\	-men	.	4c\	-men	.	4a\	-men	.	4ff\	-men	.
=148	=148	=148	=148	=148	=148	=148	=148	=148	=148	=148	=148
1F\	a-	.	1c\	a-	.	1a\	a-	.	1ff\	a-	.
=149	=149	=149	=149	=149	=149	=149	=149	=149	=149	=149	=149
4F\	-men	.	4c\	-men	.	4a\	-men	.	4ff\	-men	.
4r	.	.	4r	.	.	4r	.	.	4r	.	.
2r	.	.	2r	.	.	2r	.	.	2r	.	.
==	==	==	==	==	==	==	==	==	==	==	==
*-	*-	*-	*-	*-	*-	*-	*-	*-	*-	*-	*-
!!!system-decoration: [(s1,s2,s3,s4)]
!!!RDF**kern: > = above
!!!RDF**kern: < = below
!!!RDF**dynam: p = "p:"
!!!RDF**dynam: f = "f:"
!!!EED: Leszek Kubiak
!!!EST: 2021-01-27
!!!ENC: Tomasz Grochalski
!!!END: 2021-01-22
